**kern
*staff1
!!pagebreak:original
*I"P1
*clefF4
*k[]
*M2/4
4GG/
=1
4E\
4G\
=2
4c\
8f\L
8e\J
=3
4d\
8A\L
8B\J
=4
4G\
[4A\
=5
4A\]
8f\L
8e\J
=6
8d\L
8A\J
8a\L
8g\J
=7
8f\L
8e\J
8d\L
8A\J
=8
8c\L
8B\J
*-
